assets/images/svg/avocado_24.svg

<svg width="24" height="24" viewBox="0 0 24 24" fill="none" xmlns="http://www.w3.org/2000/svg">
<path d="M10.4553 20.5998C7.84923 20.4416 5.44019 18.589 5.44019 15.6354C5.44019 14.4141 5.8186 13.0881 6.57542 11.6575C7.04313 10.8534 7.66468 9.82879 7.99339 8.52082C8.23251 7.5682 8.37753 6.64824 8.43145 5.83828C8.54403 4.25467 9.383 2.98086 10.4555 2.74453V2.6732C10.8405 2.51939 11.2513 2.44007 11.6659 2.43945C13.5434 2.43945 15.0175 3.66621 15.1937 5.42578C15.2886 6.23596 15.9847 8.07803 16.3465 9.03065C16.8432 10.3388 17.2725 11.0422 17.9793 11.8464C18.8297 13.1004 19.2549 14.2981 19.2549 15.4396C19.2549 18.53 17.0342 21.0151 10.4553 20.6726V20.5998Z" fill="white"/>
<path d="M10.4553 20.3995C10.9682 20.539 10.9685 20.5 11.5 20.5C14.2408 20.5 16 19.0905 16 16C16 14.904 16.2912 14.3287 15.5 13C15.0323 12.1958 13.8283 10.8078 13.5 9.5C13.2809 8.61948 13.0693 6.90471 13 6C12.8836 4.24129 12.7409 3 11.5 3C10.8984 3 10.8764 2.53441 10.4553 3.06852V2.6732C10.8403 2.51939 11.2511 2.44007 11.6657 2.43945C13.5432 2.43945 15.0173 3.66621 15.1935 5.42578C15.2884 6.23596 15.9845 8.07803 16.3463 9.03065C16.843 10.3388 17.2723 11.0422 17.9791 11.8464C18.8295 13.1004 19.2546 14.2981 19.2546 15.4396C19.2546 18.53 17.034 21.0151 10.4551 20.6726L10.4553 20.3995Z" fill="#72BD87"/>
<path d="M11.5412 20.5653C9.08017 20.2645 6.00002 19.8145 6.00002 17C5.5 16 5.24326 13.9306 6.00009 12.5C6.4678 11.6958 7.17134 11.308 7.50005 10C7.73917 9.04738 8.44612 6.64748 8.50005 5.83752C8.54926 5.14548 8.81504 4.01283 9.44583 3.5C10.0791 2.98514 11.0782 3.09105 11.5199 2.87891C12.2874 3.30236 12.6719 4.4507 12.7637 5.83752C12.833 6.74223 12.9779 7.63954 13.197 8.52006C13.5255 9.82824 14.2259 11.1936 14.6936 11.9977C15.4848 13.3265 15.8804 14.5388 15.8804 15.6348C15.8804 18.4491 13.9552 20.2636 11.5412 20.5653Z" fill="#D2F2CD"/>
<path d="M11.65 21.0796C11.2577 21.0796 10.8519 21.0687 10.4325 21.047L10.4783 20.1683C12.2538 20.2609 13.7759 20.1498 15.0025 19.8385C16.0992 19.5592 16.9719 19.1185 17.5963 18.5258C18.4045 17.7577 18.8149 16.7194 18.8149 15.4389C18.8149 14.3988 18.4163 13.2808 17.6302 12.1151C16.8697 11.2462 16.4245 10.4762 15.9347 9.18609C15.3752 7.71441 14.8467 6.2466 14.7565 5.47531V5.46779C14.6039 3.9424 13.3333 2.87871 11.6666 2.87871C11.2872 2.87871 10.9071 3.00998 10.6184 3.12449L10.2931 2.30766C10.6547 2.16436 11.1372 2 11.6657 2C12.6802 2 13.6339 2.33258 14.3513 2.9365C15.0794 3.54967 15.5329 4.41635 15.6309 5.37734C15.7226 6.14777 16.4473 8.05752 16.7575 8.87371C17.2151 10.0794 17.607 10.756 18.3098 11.555L18.328 11.5764L18.3435 11.5992C19.2403 12.9216 19.6949 14.2137 19.6949 15.4396C19.6949 16.9707 19.1926 18.2239 18.2019 19.1643C16.8609 20.4368 14.66 21.0796 11.65 21.0796Z" fill="black"/>
<path d="M10.8184 21.0489C10.0879 21.0498 9.36262 20.9253 8.67426 20.6807C7.99435 20.4425 7.36415 20.081 6.81522 19.6144C6.25995 19.1436 5.81079 18.5605 5.49736 17.9034C5.16736 17.208 5 16.4442 5 15.6336C5 14.3445 5.39918 12.9379 6.18637 11.4502L6.19496 11.4347L6.26973 11.3058C6.71553 10.5416 7.27025 9.59068 7.56631 8.41141C7.79104 7.51658 7.9382 6.61596 7.99213 5.80664C8.13586 3.78518 9.3508 2.26172 10.8184 2.26172C11.5658 2.26172 12.1807 2.65316 12.5967 3.39352C12.932 3.99078 13.1359 4.8016 13.2025 5.80363C13.2697 6.68294 13.4106 7.55505 13.6238 8.41076C13.9702 9.79221 14.7522 11.2211 15.0727 11.7735C15.9005 13.1653 16.3205 14.4629 16.3205 15.6336C16.3205 16.4425 16.1723 17.2009 15.8799 17.8873C15.6045 18.5376 15.1944 19.1222 14.6768 19.6026C13.6728 20.5344 12.303 21.0489 10.8184 21.0489ZM6.96002 11.8695C6.24437 13.2263 5.87914 14.4926 5.87914 15.6336C5.87914 17.3049 6.69898 18.3574 7.3867 18.9458C8.2957 19.7231 9.54631 20.1692 10.8184 20.1692C12.0797 20.1692 13.2371 19.7395 14.0776 18.9581C14.9692 18.1294 15.4397 16.98 15.4397 15.6336C15.4397 14.6238 15.0611 13.4753 14.3148 12.2217L14.3124 12.2178C13.8909 11.4933 13.1308 10.0633 12.7694 8.62603C12.5441 7.72153 12.3953 6.79968 12.3245 5.87023V5.86529C12.2677 5.00592 12.0965 4.30102 11.8303 3.82557C11.4468 3.14279 10.9746 3.14279 10.8195 3.14279C9.8357 3.14279 8.97977 4.33969 8.87127 5.86766C8.81391 6.72703 8.65836 7.68115 8.4201 8.62625C8.09354 9.9267 7.504 10.9375 7.03027 11.7496L6.96002 11.8695Z" fill="black"/>
<path d="M7.79236 15.2867C7.79236 15.6362 7.86124 15.9824 7.99507 16.3053C8.12889 16.6282 8.32505 16.9216 8.57233 17.1688C8.81961 17.416 9.11318 17.612 9.43627 17.7458C9.75935 17.8796 10.1056 17.9484 10.4553 17.9484C10.8051 17.9484 11.1513 17.8796 11.4744 17.7458C11.7975 17.612 12.0911 17.416 12.3384 17.1688C12.5856 16.9216 12.7818 16.6282 12.9156 16.3053C13.0495 15.9824 13.1183 15.6362 13.1183 15.2867C13.1183 14.5808 12.8378 13.9038 12.3384 13.4046C11.839 12.9054 11.1616 12.625 10.4553 12.625C9.74908 12.625 9.07174 12.9054 8.57233 13.4046C8.07292 13.9038 7.79236 14.5808 7.79236 15.2867Z" fill="white"/>
<path d="M11 12.7201C11.6203 13.1157 12.5399 12.9563 12.7921 13.6028C13.0443 14.2492 13.0676 14.9504 12.8588 15.6093C12.6499 16.2683 12.2193 16.8524 11.6263 17.2808C11.0334 17.7093 10.3075 17.9609 9.54913 18.0009C8.92882 17.6052 8.46012 17.0455 8.20789 16.399C7.95566 15.7526 7.93236 15.0514 8.14121 14.3924C8.35006 13.7335 8.78075 13.1494 9.37368 12.721C9.96661 12.2925 10.2416 12.7601 11 12.7201Z" fill="#FBDB7B"/>
<path d="M10.4553 18.3889C8.74427 18.3889 7.35229 16.9974 7.35229 15.2872C7.35229 13.5771 8.74427 12.1855 10.4553 12.1855C12.1663 12.1855 13.5583 13.5771 13.5583 15.2872C13.5583 16.9974 12.1663 18.3889 10.4553 18.3889ZM10.4553 13.0655C10.0159 13.0658 9.58651 13.1963 9.22132 13.4406C8.85614 13.6849 8.57158 14.0319 8.40362 14.4379C8.23566 14.8439 8.19185 15.2906 8.27772 15.7215C8.36359 16.1524 8.57529 16.5481 8.88605 16.8587C9.19681 17.1693 9.59268 17.3807 10.0236 17.4663C10.4545 17.552 10.9012 17.5079 11.3071 17.3397C11.713 17.1715 12.0599 16.8868 12.3039 16.5214C12.548 16.1561 12.6783 15.7266 12.6783 15.2872C12.6774 14.6981 12.4429 14.1333 12.0262 13.7168C11.6094 13.3003 11.0445 13.0661 10.4553 13.0655Z" fill="black"/>
</svg>

<svg xmlns="http://www.w3.org/2000/svg" width="24" height="24" fill="none">
    <path fill="#fff"
        d="M10.46 20.6c-2.61-.16-5.02-2.01-5.02-4.96 0-1.23.38-2.55 1.14-3.98.46-.8 1.08-1.83 1.41-3.14.24-.95.39-1.87.44-2.68.11-1.59.95-2.86 2.03-3.1v-.07c.38-.15.8-.23 1.2-.23 1.88 0 3.36 1.23 3.53 2.99.1.8.8 2.65 1.16 3.6.5 1.3.92 2.01 1.63 2.82a6.45 6.45 0 0 1 1.27 3.59c0 3.09-2.22 5.58-8.8 5.23v-.07Z" />
    <path fill="#72BD87"
        d="M10.46 20.4c.5.14.5.1 1.04.1 2.74 0 4.5-1.41 4.5-4.5 0-1.1.3-1.67-.5-3-.47-.8-1.67-2.2-2-3.5A27.5 27.5 0 0 1 13 6c-.12-1.76-.26-3-1.5-3-.6 0-.62-.47-1.04.07v-.4c.38-.15.8-.23 1.2-.23 1.88 0 3.36 1.23 3.53 2.99.1.8.8 2.65 1.16 3.6.5 1.3.92 2.01 1.63 2.82a6.45 6.45 0 0 1 1.27 3.59c0 3.09-2.22 5.58-8.8 5.23v-.27Z" />
    <path fill="#D2F2CD"
        d="M11.54 20.57C9.08 20.27 6 19.8 6 17c-.5-1-.76-3.07 0-4.5.47-.8 1.17-1.2 1.5-2.5.24-.95.95-3.35 1-4.16.05-.7.32-1.83.95-2.34.63-.51 1.63-.4 2.07-.62.77.42 1.15 1.57 1.24 2.96.07.9.22 1.8.44 2.68.33 1.3 1.03 2.67 1.5 3.48a7.25 7.25 0 0 1 1.18 3.63 4.79 4.79 0 0 1-4.34 4.94Z" />
    <path fill="#000"
        d="m11.65 21.08-1.22-.03.05-.88c1.77.1 3.3-.02 4.52-.33a5.78 5.78 0 0 0 2.6-1.31c.8-.77 1.21-1.81 1.21-3.1 0-1.03-.4-2.15-1.18-3.31a8.64 8.64 0 0 1-1.7-2.93 21 21 0 0 1-1.17-3.71v-.01c-.16-1.53-1.43-2.6-3.1-2.6-.37 0-.75.14-1.04.25l-.33-.81c.36-.15.85-.31 1.38-.31 1.01 0 1.96.33 2.68.94a3.65 3.65 0 0 1 1.28 2.44c.1.77.82 2.68 1.13 3.5.46 1.2.85 1.88 1.55 2.67l.02.03.01.02a6.9 6.9 0 0 1 1.35 3.84c0 1.53-.5 2.78-1.49 3.72-1.34 1.28-3.54 1.92-6.55 1.92Z" />
    <path fill="#000"
        d="M10.82 21.05a6.38 6.38 0 0 1-4-1.44A5.15 5.15 0 0 1 5 15.63c0-1.29.4-2.7 1.19-4.18v-.02l.08-.12a10.94 10.94 0 0 0 1.72-5.5c.15-2.02 1.36-3.55 2.83-3.55.75 0 1.36.4 1.78 1.13.33.6.54 1.41.6 2.41.07.88.21 1.76.42 2.61a14.38 14.38 0 0 0 1.45 3.36 7.7 7.7 0 0 1 1.25 3.86c0 .81-.15 1.57-.44 2.26a5 5 0 0 1-1.2 1.71 5.63 5.63 0 0 1-3.86 1.45Zm-3.86-9.18a8.2 8.2 0 0 0-1.08 3.76c0 1.67.82 2.73 1.5 3.32.92.77 2.17 1.22 3.44 1.22 1.26 0 2.42-.43 3.26-1.21a4.4 4.4 0 0 0 1.36-3.33c0-1-.38-2.15-1.13-3.4v-.01a14.98 14.98 0 0 1-1.54-3.6c-.23-.9-.37-1.82-.45-2.75a4.99 4.99 0 0 0-.49-2.04c-.38-.69-.86-.69-1.01-.69-.98 0-1.84 1.2-1.95 2.73-.06.86-.21 1.81-.45 2.76-.33 1.3-.92 2.3-1.39 3.12l-.07.12Z" />
    <path fill="#fff" d="M7.8 15.29a2.66 2.66 0 1 0 5.31 0 2.66 2.66 0 0 0-5.32 0Z" />
    <path fill="#FBDB7B"
        d="M11 12.72c.62.4 1.54.24 1.8.88a3 3 0 0 1 .06 2 3.3 3.3 0 0 1-1.23 1.68 3.9 3.9 0 0 1-2.08.72 3.37 3.37 0 0 1-1.34-1.6 3 3 0 0 1-.07-2 3.3 3.3 0 0 1 1.23-1.68c.6-.43.87.04 1.63 0Z" />
    <path fill="#000"
        d="M10.46 18.39a3.1 3.1 0 1 1 0-6.21 3.1 3.1 0 0 1 0 6.2Zm0-5.32a2.22 2.22 0 1 0 0 4.44 2.22 2.22 0 0 0 0-4.44Z" />
</svg>
